X: 1
T: The Road To Sligo
R: reel
M: 4/4
L: 1/8
K: Dmaj
|:A|BAdB AF ~F2|DEFD EFDB,|DEFA BABd|ABdf eBdA|
BAdB AF ~F2|DEFD EFDB,|DEFA fece|dBAG FAD:|
|:A|fd ~d2 Adfb|bafb afeg|fd ~d2 adfa|baaf e2de|
f2fd edfa|bafb afed|ABde fece|dBAG FAD:|

composer: Brendan Tonra
